packages/tokens/icons/noContent/size32Px.svg

<svg viewBox="0 0 32 32" fill="none" xmlns="http://www.w3.org/2000/svg" width="1em" height="1em"><path d="M19 7V9.5C19 10.6046 19.8954 11.5 21 11.5H23M23.5 12.2675V23.5C23.5 24.6046 22.6046 25.5 21.5 25.5H10.5C9.39543 25.5 8.5 24.6046 8.5 23.5L8.5 8.5C8.5 7.39543 9.39543 6.5 10.5 6.5L18.1093 6.5C18.6762 6.5 19.2166 6.74064 19.5959 7.16207L22.9866 10.9295C23.3171 11.2968 23.5 11.7734 23.5 12.2675Z" stroke="currentColor"/><path d="M27 5L5 27" stroke="currentColor" stroke-linecap="round"/></svg>

<svg xmlns="http://www.w3.org/2000/svg" fill="none" viewBox="0 0 32 32" width="1em" height="1em"><path stroke="currentColor" d="M19 7v2.5a2 2 0 0 0 2 2h2m.5.768V23.5a2 2 0 0 1-2 2h-11a2 2 0 0 1-2-2v-15a2 2 0 0 1 2-2h7.61a2 2 0 0 1 1.486.662l3.39 3.768a2 2 0 0 1 .514 1.338Z"/><path stroke="currentColor" stroke-linecap="round" d="M27 5 5 27"/></svg>
